icons/circle/48/harvey.svg

<svg version="1.1" viewBox="0 0 48 48" xmlns="http://www.w3.org/2000/svg">
 <path d="m36.31 5c5.859 4.062 9.688 10.831 9.688 18.5 0 12.426-10.07 22.5-22.5 22.5-7.669 0-14.438-3.828-18.5-9.688 1.037 1.822 2.306 3.499 3.781 4.969 4.085 3.712 9.514 5.969 15.469 5.969 12.703 0 23-10.298 23-23 0-5.954-2.256-11.384-5.969-15.469-1.469-1.475-3.147-2.744-4.969-3.781zm4.969 3.781c3.854 4.113 6.219 9.637 6.219 15.719 0 12.703-10.297 23-23 23-6.081 0-11.606-2.364-15.719-6.219 4.16 4.144 9.883 6.719 16.219 6.719 12.703 0 23-10.298 23-23 0-6.335-2.575-12.06-6.719-16.219z" style="opacity:.05"/>
 <path d="m41.28 8.781c3.712 4.085 5.969 9.514 5.969 15.469 0 12.703-10.297 23-23 23-5.954 0-11.384-2.256-15.469-5.969 4.113 3.854 9.637 6.219 15.719 6.219 12.703 0 23-10.298 23-23 0-6.081-2.364-11.606-6.219-15.719z" style="opacity:.1"/>
 <path d="m31.25 2.375c8.615 3.154 14.75 11.417 14.75 21.13 0 12.426-10.07 22.5-22.5 22.5-9.708 0-17.971-6.135-21.12-14.75a23 23 0 0 0 44.875 -7 23 23 0 0 0 -16 -21.875z" style="opacity:.2"/>
 <path d="m24 1c-1.721 0-3.387 0.204-5 0.563v44.875c1.613 0.358 3.279 0.563 5 0.563s3.387-0.204 5-0.563v-44.875c-1.613-0.358-3.279-0.563-5-0.563z" style="fill:#f3f284"/>
 <path d="m9 6.563c-4.897 4.218-8 10.467-8 17.438s3.103 13.22 8 17.438v-34.875z" style="fill:#9ab9dd"/>
 <path d="m19 1.563c-3.76 0.835-7.182 2.573-10 5v34.875c2.818 2.427 6.24 4.165 10 5v-44.875z" style="fill:#9add9c"/>
 <path d="m29 1.563v44.875c3.76-0.835 7.182-2.573 10-5v-34.875c-2.818-2.427-6.24-4.165-10-5z" style="fill:#edb968"/>
 <path d="m39 6.563v34.875c4.897-4.218 8-10.467 8-17.438s-3.103-13.22-8-17.438z" style="fill:#ed8e68"/>
 <path d="m40.03 7.531c3.712 4.084 5.969 9.514 5.969 15.469 0 12.703-10.297 23-23 23-5.954 0-11.384-2.256-15.469-5.969 4.178 4.291 10.01 6.969 16.469 6.969 12.703 0 23-10.298 23-23 0-6.462-2.677-12.291-6.969-16.469z" style="opacity:.1"/>
 <path d="m34 15-13 14-5-5-3 3 8 8 16-17z" style="fill-rule:evenodd;opacity:.1"/>
 <path d="m33 14-13 14-5-5-3 3 8 8 16-17z" style="fill-rule:evenodd;fill:#333"/>
</svg>

<svg viewBox="0 0 48 48" xmlns="http://www.w3.org/2000/svg">
  <path d="M36.31 5c5.859 4.062 9.688 10.831 9.688 18.5 0 12.426-10.07 22.5-22.5 22.5-7.669 0-14.438-3.828-18.5-9.688a23.24 23.24 0 0 0 3.781 4.969 22.923 22.923 0 0 0 15.469 5.969c12.703 0 23-10.298 23-23a22.92 22.92 0 0 0-5.969-15.469A23.216 23.216 0 0 0 36.31 5zm4.969 3.781A22.911 22.911 0 0 1 47.498 24.5c0 12.703-10.297 23-23 23a22.909 22.909 0 0 1-15.719-6.219C12.939 45.425 18.662 48 24.998 48c12.703 0 23-10.298 23-23 0-6.335-2.575-12.06-6.719-16.219z" opacity=".05"/>
  <path d="M41.28 8.781a22.923 22.923 0 0 1 5.969 15.469c0 12.703-10.297 23-23 23A22.92 22.92 0 0 1 8.78 41.281 22.911 22.911 0 0 0 24.499 47.5c12.703 0 23-10.298 23-23A22.909 22.909 0 0 0 41.28 8.781z" opacity=".1"/>
  <path d="M31.25 2.375C39.865 5.529 46 13.792 46 23.505c0 12.426-10.07 22.5-22.5 22.5-9.708 0-17.971-6.135-21.12-14.75a23 23 0 0 0 44.875-7 23 23 0 0 0-16-21.875z" opacity=".2"/>
  <path d="M24 1c-1.721 0-3.387.204-5 .563v44.875c1.613.358 3.279.563 5 .563s3.387-.204 5-.563V1.563A23.009 23.009 0 0 0 24 1z" fill="#f3f284"/>
  <path d="M9 6.563C4.103 10.781 1 17.03 1 24.001s3.103 13.22 8 17.438V6.564z" fill="#9ab9dd"/>
  <path d="M19 1.563a22.925 22.925 0 0 0-10 5v34.875a22.925 22.925 0 0 0 10 5V1.563z" fill="#9add9c"/>
  <path d="M29 1.563v44.875a22.925 22.925 0 0 0 10-5V6.563a22.925 22.925 0 0 0-10-5z" fill="#edb968"/>
  <path d="M39 6.563v34.875C43.897 37.22 47 30.971 47 24s-3.103-13.22-8-17.438z" fill="#ed8e68"/>
  <path d="M40.03 7.531A22.922 22.922 0 0 1 45.999 23c0 12.703-10.297 23-23 23A22.92 22.92 0 0 1 7.53 40.031C11.708 44.322 17.54 47 23.999 47c12.703 0 23-10.298 23-23 0-6.462-2.677-12.291-6.969-16.469z" opacity=".1"/>
  <path d="M34 15L21 29l-5-5-3 3 8 8 16-17z" fill-rule="evenodd" opacity=".1"/>
  <path d="M33 14L20 28l-5-5-3 3 8 8 16-17z" fill-rule="evenodd" fill="#333"/>
</svg>
